dist/images/icon/stock-ruble.svg

<svg width="16" height="18" viewBox="0 0 16 18" fill="none" xmlns="http://www.w3.org/2000/svg">
<path d="M2.67725 8.91791C2.67725 6.13866 2.67725 3.35941 2.67725 0.394878C5.48023 0.394878 8.01809 0.28371 10.5559 0.431937C13.2074 0.580164 15.2149 3.02591 15.1392 5.69399C15.0634 8.28795 13.018 10.5484 10.3665 10.6596C8.47263 10.7707 6.61658 10.6966 4.64692 10.6966L2.67725 8.91791ZM4.64692 2.09949C4.64692 4.47111 4.64692 6.69451 4.64692 8.99203C5.13933 9.02908 6.61659 8.99203 6.99537 8.99203C8.05596 8.99203 9.53322 9.02908 10.3665 8.91791C12.1468 8.73263 13.4347 7.21331 13.3968 5.5087C13.3589 3.72998 11.9953 2.21066 10.1393 2.09949C8.35898 2.02537 6.54083 2.09949 4.64692 2.09949Z" fill="#1C62CD"/>
<path d="M8.24571 11.1043C7.67754 11.1043 7.07148 11.1043 6.46543 11.1043C5.85938 11.1043 5.25333 11.1043 4.64728 11.1043V10.3631C5.25333 10.3631 5.85938 10.3631 6.46543 10.3631C7.79117 10.3631 9.07905 10.4002 10.3669 10.3261C12.7911 10.1779 14.7229 8.17681 14.7608 5.69402C14.8365 3.13711 12.9047 0.950759 10.5184 0.802532C8.77601 0.691362 7.03361 0.728416 5.21545 0.765473C4.49577 0.765473 3.77608 0.802532 3.05639 0.802532V8.955H2.29883V0.0613989H2.67761C3.54881 0.0613989 4.38213 0.0613966 5.21545 0.02434C7.07149 -0.0127167 8.81389 -0.0127144 10.5942 0.0613989C13.3972 0.209626 15.5941 2.76654 15.5562 5.69402C15.4804 8.54738 13.2456 10.8819 10.4426 11.0302C9.68508 11.1043 8.9654 11.1043 8.24571 11.1043ZM8.24571 9.36262C7.86693 9.36262 7.45027 9.36262 6.99574 9.36262C6.84422 9.36262 6.54121 9.36262 6.2003 9.36262C5.59425 9.36262 4.91244 9.36262 4.60941 9.36262L4.2685 9.32556V1.69189H4.64728C5.25333 1.69189 5.82152 1.69189 6.38969 1.69189C7.67755 1.69189 8.92753 1.65484 10.1775 1.72895C12.1851 1.84012 13.7759 3.50767 13.8138 5.50873C13.8517 7.43568 12.3366 9.10322 10.4426 9.2885C9.95023 9.36262 9.19267 9.36262 8.24571 9.36262ZM6.84421 8.62149C6.91997 8.62149 6.95786 8.62149 6.99574 8.62149C8.58662 8.65855 9.68508 8.62149 10.329 8.58443C11.8441 8.4362 13.0563 7.10216 13.0184 5.54578C13.0184 3.91529 11.7305 2.58125 10.1018 2.50714C8.88965 2.43303 7.67755 2.47008 6.38969 2.47008C5.93515 2.47008 5.4806 2.47008 5.02606 2.47008V8.62149C5.36697 8.62149 5.82152 8.62149 6.2003 8.62149C6.46545 8.62149 6.6927 8.62149 6.84421 8.62149Z" fill="#1C62CD"/>
<path d="M5.32865 8.99207H0.972656V10.7337H5.32865V8.99207Z" fill="#1C62CD"/>
<path d="M5.6702 11.0672H0.556641V8.58435H5.6702V11.0672ZM1.35207 10.326H4.9505V9.32548H1.35207V10.326Z" fill="#1C62CD"/>
<path d="M8.85134 12.4384H0.972656V14.18H8.85134V12.4384Z" fill="#1C62CD"/>
<path d="M9.23 14.5507H0.59375V12.0679H9.23V14.5507ZM1.35131 13.8095H8.47244V12.809H1.35131V13.8095Z" fill="#1C62CD"/>
<path d="M4.64692 7.91736H2.67725V17.6262H4.64692V7.91736Z" fill="#1C62CD"/>
<path d="M5.02606 17.9968H2.29883V7.54688H5.02606V17.9968ZM3.05639 17.2557H4.2685V8.28801H3.05639V17.2557Z" fill="#1C62CD"/>
</svg>

<svg width="16" height="18" fill="none" xmlns="http://www.w3.org/2000/svg"><path d="M2.677 8.918V.395c2.803 0 5.341-.111 7.879.037 2.651.148 4.659 2.594 4.583 5.262-.076 2.594-2.121 4.854-4.772 4.966-1.894.11-3.75.037-5.72.037l-1.97-1.78zm1.97-6.819v6.893c.492.037 1.97 0 2.348 0 1.061 0 2.538.037 3.372-.074a3.372 3.372 0 003.03-3.41c-.038-1.778-1.402-3.297-3.258-3.409-1.78-.074-3.598 0-5.492 0z" fill="#1C62CD"/><path d="M8.246 11.104H4.647v-.74h1.818c1.326 0 2.614.036 3.902-.038 2.424-.148 4.356-2.15 4.394-4.632.075-2.557-1.856-4.743-4.243-4.891C8.776.69 7.034.728 5.215.765c-.72 0-1.439.038-2.159.038v8.152H2.3V.061h.379c.87 0 1.704 0 2.537-.037a86.36 86.36 0 015.38.037c2.802.149 5 2.706 4.961 5.633-.076 2.853-2.31 5.188-5.113 5.336-.758.074-1.478.074-2.197.074zm0-1.741H4.61l-.341-.037V1.692H6.39c1.288 0 2.538-.037 3.788.037 2.007.111 3.598 1.779 3.636 3.78.038 1.927-1.477 3.594-3.371 3.78-.493.074-1.25.074-2.197.074zM6.844 8.62h.152c1.59.038 2.69 0 3.333-.037 1.515-.148 2.727-1.482 2.69-3.038a3.047 3.047 0 00-2.917-3.039C8.89 2.433 7.678 2.47 6.39 2.47H5.026v6.151h1.818z" fill="#1C62CD"/><path d="M5.329 8.992H.973v1.742h4.356V8.992z" fill="#1C62CD"/><path d="M5.67 11.067H.557V8.584H5.67v2.483zm-4.318-.741H4.95v-1H1.353v1zm7.499 2.112H.973v1.742H8.85v-1.742z" fill="#1C62CD"/><path d="M9.23 14.55H.594v-2.482H9.23v2.483zm-7.879-.74h7.121v-1.001h-7.12v1z" fill="#1C62CD"/><path d="M4.647 7.917h-1.97v9.71h1.97v-9.71z" fill="#1C62CD"/><path d="M5.026 17.997H2.3V7.547h2.727v10.45zm-1.97-.741H4.27V8.288H3.056v8.968z" fill="#1C62CD"/></svg>2 4.60941 9.36262L4.2685 9.32556V1.69189H4.64728C5.25333 1.69189 5.82152 1.69189 6.38969 1.69189C7.67755 1.69189 8.92753 1.65484 10.1775 1.72895C12.1851 1.84012 13.7759 3.50767 13.8138 5.50873C13.8517 7.43568 12.3366 9.10322 10.4426 9.2885C9.95023 9.36262 9.19267 9.36262 8.24571 9.36262ZM6.84421 8.62149C6.91997 8.62149 6.95786 8.62149 6.99574 8.62149C8.58662 8.65855 9.68508 8.62149 10.329 8.58443C11.8441 8.4362 13.0563 7.10216 13.0184 5.54578C13.0184 3.91529 11.7305 2.58125 10.1018 2.50714C8.88965 2.43303 7.67755 2.47008 6.38969 2.47008C5.93515 2.47008 5.4806 2.47008 5.02606 2.47008V8.62149C5.36697 8.62149 5.82152 8.62149 6.2003 8.62149C6.46545 8.62149 6.6927 8.62149 6.84421 8.62149Z" fill="#1C62CD"/>
<path d="M5.32865 8.99207H0.972656V10.7337H5.32865V8.99207Z" fill="#1C62CD"/>
<path d="M5.6702 11.0672H0.556641V8.58435H5.6702V11.0672ZM1.35207 10.326H4.9505V9.32548H1.35207V10.326Z" fill="#1C62CD"/>
<path d="M8.85134 12.4384H0.972656V14.18H8.85134V12.4384Z" fill="#1C62CD"/>
<path d="M9.23 14.5507H0.59375V12.0679H9.23V14.5507ZM1.35131 13.8095H8.47244V12.809H1.35131V13.8095Z" fill="#1C62CD"/>
<path d="M4.64692 7.91736H2.67725V17.6262H4.64692V7.91736Z" fill="#1C62CD"/>
<path d="M5.02606 17.9968H2.29883V7.54688H5.02606V17.9968ZM3.05639 17.2557H4.2685V8.28801H3.05639V17.2557Z" fill="#1C62CD"/>
</svg>
